X:1
T:#
%%score [ 1 { 2 | 3 } 4 ]
L:1/8
Q:1/4=200
M:none
K:C
V:1 treble nm="Alto" snm="A"
V:2 treble-8 nm="Tenor I" snm="T"
V:3 treble-8 
V:4 bass nm="Bass" snm="B"
V:1
 x16 x12 x4 x2 || %1
w: |
"^Dixit Dominus""^Diego Ortiz\n(1510-1570)""^Psalm 110 (Vulgate Psalm 109)"[Q:1/4=200] A8 A8- x32 | %2
w: Se- de|
 A4 A4 G8 | F4 (A8 G4 | x16 | F4 E8 D4- x8 |[Q:1/4=130] D4 ^C4) D16 x14 || x16 x12 x8 || x16 | %9
w: * a dex-|tris me\- *|||* * is:|||
 A8 A8- | A4 A4 A8- | A4 A4 G8 | F16 | A8 A4 A4 | A12 A4 x10 | B4 c4 (B4 A4- | %16
w: Vir- gam|* vir- tu\-|* tis tu-|ae|e- mit- tet|Do- mi-|nus ex Si\- *|
 A4 ^G4) x2 !fermata!A16 || A12 A4 | A8 A4 A4 | A4 A4 A4 A4 | A4 A4 (A8 | G8) F4 (A4- x8 | %22
w: * * on:|do- mi-|na- re in|me- di- o i-|ni- mi- co\-|* rum tu\-|
[Q:1/4=130] A2 G2 F4) (E4 D4- x22 | D4 ^C4) D16 ||[Q:1/4=130][Q:1/4=200][Q:1/4=130] z38 | z22 || %26
w: * * * o\- *|* * rum.|||
[Q:1/4=200][Q:1/4=200] A8 A8- | A4 A4 A4 A4 | A8 A4 A4 | A4 A4 A4 A4 | (B6 A2 B4 c4- | %31
w: Ju- ra\-|* vit Do- mi-|nus et non|poe- ni- te- bit|e\- * * *|
 c2 B2 A8 ^G4) | !fermata!A16 || A8 A4 A4 | A4 A4 A4 A4 | A8 !fermata!A8 | A8 A8- | A4 A4 A4 A4 | %38
w: |um:|Tu es sa-|cer- dos in ae-|ter- num|se- cun\-|* dum or- di-|
 G8 F4 (A4- | A4 G4 F4 E4- |[Q:1/4=130] E4 D8) ^C4 x14 | D16 x6 || %42
w: nem Mel- chi\-||* * se-|dech.|
[Q:1/4=130][Q:1/4=200][Q:1/4=130] z30 | z22 ||[Q:1/4=200][Q:1/4=200] A12 A4 | A4 A4 A8 | %46
w: ||Ju- di-|ca- bit in|
 A4 A4 A4 A4 | A4 A4 A8 | B8 c8 | (B4 A8 ^G4) | !fermata!A16 || A12 A4 | A8 A4 A4- | A4 A4 A8- | %54
w: na- ti- o- ni-|bus, im- ple-|bit ru-|i\- * *|nas:|con- quas-|sa- bit ca\-|* pi- ta|
 A4 A4 G8 | F4 (A8 G2 F2 | G12 F2 E2 x8 |[Q:1/4=130] F4) (E6 D2 D4- x16 | D4 ^C4) D16 || %59
w: * in ter-|ra mul\- * *||* to\- * *|* * rum.|
[Q:1/4=130][Q:1/4=200][Q:1/4=130] z32 | z22 ||[Q:1/4=200][Q:1/4=200] A8 A8- | A4 A4 A8 | A12 A4 | %64
w: ||Glo- ri\-|* a Pa-|tri, et|
 (B6 A2 B4 c4- | c2 B2 A8) ^G4 | !fermata!A16 || A8 A8- | A4 A4 G8 | F8 (A8- | A8 G8 | F12 E2 D2 | %72
w: Fi\- * * *|* * * li-|o,|et Spi\-|* ri- tu-|i san\-|||
 E4 D8 ^C4) | D16- x8 |[Q:1/4=130] D16 x14 | D24 ||[Q:1/4=130][Q:1/4=130] z30 | z22 || %78
w: |cto:|||||
V:2
 x16 x12 x4 x2 || e8 f4 (f4- f2 e2) (d8 c4) d8 (c6 B2 | x16 | x16 | A4 c6 B2 A2 G2 | A8) A16 | %6
w: |Se- de a * * dex\- * tris me\- *||||* is:|
 x16 x12 x8 x2 || e8 f8- x20 || f4 f4 (f8 | e4) f4 d8 | d16 | f8 f4 f4 | f8 e4 e4 | g8 (f8 | %14
w: |Vir- gam|* vir- tu\-|* tis tu-|ae|e- mit- tet|Do- mi- nus|ex Si\-|
 e8) x2 !fermata!e16 | f12 f4 | f8 e4 f4 x10 || f4 f4 e4 e4 | e4 e4 (d8- | d4 ^c4) d8 | %20
w: * on:|do- mi-|na- re in|me- di- o i-|ni- mi- co\-|* * rum|
 (A6 B2 c4 A4) | A8 A16 | x38 | x24 || e8 f8- x22 | f4 f4 f4 f4 x6 || e8 f4 f4 | f4 f4 (f4 e4) | %28
w: tu\- * * *|o- rum.|||Ju- ra\-|* vit Do- mi-|nus et non|poe- ni- te\- *|
 g4 (g6 f2 e2 d2 | c4 d4 e8) | !fermata!e16 | f8 f4 f4 | f4 f4 f4 f4 || f8 !fermata!f8 | c8 f8- | %35
w: bit e\- * * *||um:|Tu es sa-|cer- dos in ae-|ter- num|se- cun\-|
 f4 f4 d8- | d4 c4 d4 (c2 d2) | (e8 d4 B4 | c2 B2 A2 G2) A8 | A16 | x30 | x22 || e12 f4 x14 | %43
w: * dum or\-|* di- nem Mel\- *|chi\- * *|* * * * se-|dech.|||Ju- di-|
 f4 f4 f8 x6 || f4 f4 f4 f4 | e12 e4 | e8 e4 e4- | e4 (c2 d2 e8) | !fermata!e16 | f12 f4 | e8 f8 || %51
w: ca- bit in|na- ti- o- ni-|bus, im-|ple- bit ru\-|* i\- * *|nas:|con- quas-|sa- bit|
 f12 f4 | e4 f4 d8 | d4 c4 (e8- | e4 d2 c2 d8- | d4 B4 c2 B2 A2 G2 | A8) A16 | x32 | x24 || %59
w: ca- pi-|ta in ter-|ra mul- to\-|||* rum.|||
 e8 f8- x16 | f4 f4 f8 x6 || f4 (c6 d2 e2 f2 | g4) (g6 f2 e2 d2 | e12) e4 | !fermata!e16 | %65
w: Glo- ri\-|* a Pa-|tri, et * * *|* Fi\- * * *|* li-|o,|
 ^c8 d8- | d4 d4 (B4 c4) || d4 (d8 c2 B2 | c8 B4 c4 | A4 B4) c4 c4- | c2 B2 A2 G2 A8 | F4 (_B8 A4 | %72
w: et Spi\-|* ri- tu\- *|i san\- * *||* * cto, san\-||cto, san\- *|
 G6 A2 _B8) | A24 | x30 | x24 || x30 | x22 || %78
w: |cto:|||||
V:3
 F2 G2 A2 A2 A2 A2 G2 G2 A2 _B2 A2 A2 A2 G2 G2 A4 || A8 A8- x32 | A4 F4 G8 | A4 (F8 E4 | F4 G8 F4 | %5
w: Di- xit * Do- mi- nus * Do\- * * mi- no me\- * o. *|Se- de|* a dex-|tris me\- *||
w: |||||
 E8) D16 | F2 G2 A2 A8 A2 G2 G2 A2 _B2 A2 A2 A2 G2 G2 A4 || A8 c8- x20 || c4 d4 c8- | c4 c4 B8 | %10
w: * is:|Do- nec * ponam~inimicos~tuos~scabel- lum * pe\- * * dum tu- o\- * rum. *|Vir- gam|* vir- tu\-|* tis tu-|
w: |||||
 A16 | d8 d4 d4 | c12 c4 | d4 e4 (d6 c2 | B8) x2 !fermata!A16 | c12 d4 | d8 ^c4 d4 x10 || %17
w: ae|e- mit- tet|Do- mi-|nus ex Si\- *|* on:|do- mi-|na- re in|
w: |||||||
 =c4 c4 c4 c4 | A12 F4 | G8 A8 | F8 (G6 F2 | E2 D2 E4) D16 | %22
w: me- di- o i-|ni- mi-|co- rum|tu- o\- *|* * * rum.|
w: |||||
[I:staff -1] F2 G2 A2 A8 A2 G2 G2 A2 _B2 A2 A2 A2 G2 G2 A4 | A8 G2 F2 G2 A2 G2 F4[I:staff +1] x2 || %24
w: Te- cum * principium~in~di- e * vir\- * * tu- tis tu\- * ae: *|in~splendoribus~sanctorum~ * * * * * *|
w: |ex~utero~an~te~luciferum ge- nu- i * te. *|
 A8 c8- x22 | c4 d4 c4 c4 x6 || c8 c4 c4 | c4 c4 c4 c4 | (d12 c2 B2 | A8 B8) | !fermata!A16 | %31
w: Ju- ra\-|* vit Do- mi-|nus et non|poe- ni- te- bit|e\- * *||um:|
w: |||||||
 c8 c4 c4 | c4 c4 c4 c4 || c8 !fermata!c8 | A8 A8- | A4 A4 F4 F4 | G8 A8 | (c6 B2 A4 G4- | %38
w: Tu es sa-|cer- dos in ae-|ter- num|se- cun\-|* dum or- di-|nem Mel-|chi\- * * *|
w: |||||||
 G4 F4) E8 | D16 |[I:staff -1] F2 G2 A2 A2 G2 G2 A2 _B2 A2 A2 A2 G2 G2 A4 | A8 G2 F2 G2 A2 G2 F4 || %42
w: * * se-|dech.|Do- mi\- * nus * a * * dex- tris tu\- * is: *|confregit~in~die~irae su- ae re\- * ges. *|
w: ||||
[I:staff +1] ^c12 d4 x14 | d4 d4 d8 x6 || d4 d4 c4 A4 | c4 (c6 B2) A4- | A4 ^G4 A8 | (G4 A4 B8) | %48
w: Ju- di-|ca- bit in|na- ti- o- ni-|bus, im\- * ple\-|* bit ru-|i\- * *|
w: ||||||
 !fermata!A16 | (A6 B2 c4) d4- | d2 (^cB c4) d4 d4- || d4 d4 c8- | c4 c4 B8 | A8 (c8- | %54
w: nas:|con\- * * quas\-|* sa\- * * bit ca\-|* pi- ta|* in ter-|ra mul\-|
w: ||||||
 c4 B4) (A8- | A4 G2 F2 G4 F4 | E8) D16 | %57
w: * * to\-||* rum.|
w: |||
[I:staff -1] F2 G2 A2 A2 G2 G2 A2 _B2 A2 A2 A2 A2 G2 G2 A4 | A8 G2 F2 G2 A2 G2 F4[I:staff +1] x2 || %59
w: De tor\- * ren\- * te * * in vi- a bi\- * bet: *|propterea~exal- ta- bit ca\- * put. *|
w: ||
 ^c8 d8- x16 | d4 d4 d8 x6 || c4 (A6 B2 c4) | (d12 c2 B2 | c8) B8 | !fermata!A16 | A8 A8- | %66
w: Glo- ri\-|* a Pa-|tri, et * *|Fi\- * *|* li-|o,|et Spi\-|
w: |||||||
 A4 F4 G8 || A8 A6 G2 | E6 F2 G4 E4 | F8 G8- | G4 F4 E8 | D4 F4 G4 A4 | _B6 A2 (G2 F2 G4- | %73
w: * ri- tu-|i san\- *||||cto, et Spi- ri-|tu- i san\- * *|
w: |||||||
 G4 ^F2 E2) F16 |[I:staff -1] F2 G2 A2 A2 G2 G2 A2 _B2 A4 A2 G2 G2 A4 | %75
w: * * * cto:|Si- cut * e\- * rat * * in~princi- pi\- * o, *|
w: ||
 A8 G2 F2 G2 A2 G2 F4[I:staff +1] x2 || x30 | x22 || %78
w: et~nunc,et sem- per A\- * men. *|||
w: |||
V:4
 x16 x12 x4 x2 || A,8 F,8 x32 | D,8 E,8 | (D,6 E,2 F,4) (C,4 | x16 | D,4 C,2 B,,2 C,4 D,4 x8 | %6
w: |Se- de|a dex-|tris * * me\-|||
 A,,8) D,16 x14 || x16 x12 x8 || x16 | A,8 F,8- | F,4 D,4 (F,6 G,2 | A,4) F,4 G,8 | D,16 | %13
w: * is:|||Vir- gam|* vir- tu\- *|* tis tu-|ae|
 D,8 D,4 D,4 | (F,6 G,2 A,4) A,4 x10 | G,4 C,4 (D,8 | E,8) z2 !fermata!A,,16 || F,12 D,4 | %18
w: e- mit- tet|Do\- * * mi-|nus ex Si\-|* on:|do- mi-|
 D,8 A,,4 D,4 | F,6 G,2 A,4 A,,4 | A,,4 A,,4 (D,8 | E,8) D,8- x8 | D,4 D,4 (C,4 D,4 x22 | %23
w: na- re in|me- di- o i-|ni- mi- co\-|* rum|* tu- o\- *|
 A,,8) D,16 || z38 | z22 || A,8 F,8- | F,4 D,4 F,6 G,2 | A,8 F,4 F,4 | F,4 F,4 F,4 A,4 | %30
w: * rum.|||Ju- ra\-|* vit Do- mi-|nus et non|poe- ni- te- bit|
 (G,12 A,4- | A,2 G,2 F,4 E,8) | !fermata!A,,16 || F,8 F,4 F,4 | F,4 F,4 F,4 F,4 | %35
w: e\- *||um:|Tu es sa-|cer- dos in ae-|
 F,8 !fermata!F,8 | F,8 D,8- | D,4 D,4 D,4 D,4 | E,8 D,4 (A,,4- | A,,2 B,,2 C,4 D,4 E,4 | %40
w: ter- num|se- cun\-|* dum or- di-|nem Mel- chi\-||
 C,4 D,4) A,,8 x14 | D,16 x6 || z30 | z22 || A,12 D,4 | D,4 D,4 D,8 | D,4 D,4 F,6 G,2 | %47
w: * * se-|dech.|||Ju- di-|ca- bit in|na- ti- o- ni-|
 A,4 A,4 A,8 | E,4 E,4 (A,,2 B,,2 C,2 D,2 | E,4 F,4 E,8) | !fermata!A,,16 || F,12 D,4 | %52
w: bus, im- ple-|bit ru- i\- * * *||nas:|con- quas-|
 A,8 D,4 D,4- | D,4 D,4 (F,6 G,2 | A,4) F,4 G,8 | D,4 (A,,6 B,,2 C,2 D,2 | E,2 F,2 G,4) (D,8- x8 | %57
w: sa- bit ca\-|* pi- ta *|* in ter-|ra mul\- * * *|* * * to\-|
 D,4 E,4 C,4 D,4 x16 | A,,8) D,16 || z32 | z22 || A,,8 D,8- | D,4 D,4 D,8 | (F,6 G,2 A,8) | %64
w: |* rum.|||Glo- ri\-|* a Pa-|tri, * *|
 G,4 (G,,8 A,,4- | A,,2 B,,2 C,2 D,2) E,8 | !fermata!A,,16 || A,,8 D,8- | D,4 D,4 E,8 | %69
w: et Fi\- *|* * * * li-|o,|et Spi\-|* ri- tu-|
 D,4 (D,6 C,2 A,,4- | A,,2 B,,2 C,2 D,2 E,4 C,4 | D,8 C,8- | C,4 D,4) A,,8 | %73
w: i san\- * *|||* * cto,|
 (_B,,6 A,,2 G,,4 F,,4 x8 | G,,16) x14 | D,24 || z30 | z22 || %78
w: san\- * * *||cto:|||

